X: 10231
T: O WHISTLE AND I'LL COME TO YOU MY LAD &c.
Q: "Lively"
%R: jig
B: "Edinburgh Repository of Music" v.1 p.23 #1
F: http://digital.nls.uk/special-collections-of-printed-music/pageturner.cfm?id=87776133
Z: 2015 John Chambers <jc:trillian.mit.edu>
N: The 2nd strain has initial repeat but no final repeat; not fixed.
M: 6/8
L: 1/8
K: D
d/e/ !segno!|\
fdB AGF | Eee e2d/e/ |\
fdB AFA | Bdd "_Fine."d2 :|\
|: f/e/ |\
dfa dfa |
dfa a>gf/e/ |\
dfa dfa | bee e>gf/e/ |\
dfa dfa | dd'b Ha>ba/g/ !segno!|]
